X:4772
T:El Ringo-Rango (MG 03)
R:Fandangu
C:Tradicional
S:Msica Tradicional Asturiana, (C) Tello & Tito. Asturies, 2001.
S:http://pagina.de/MusTradAst <telloytito@asturies.org>
A:Asturies
Z:Mtodu de Gaita 03
E:Nivel 1
M:3/8
L:1/8
Q:1/4=120
K:C
C2E|GGG|A2A|G3|~A2G|FGA|
~G2F|[1 E3:|[2 E2E||DEF|G3|EGG|
FED|C3|~EDC|B,2D|FED|C3|
~EDC|B,2D|FEF|~GED|C3|
